X:505
T:B505-  When First Amintas Sued for a Kiss
Q:1/4=120
L:1/4
M:6/4
K:A mixolydian
A|ceEA2B|cBcd2c|BF^GA3/2B/A|^G3E2A|\
ceEA3/2B/ c/A/|d3/2e/ f/e/gfe/d/|cAEAFA|B^GEA2:|e|\
aeeecA|c/d/efg2g|fdfe2d/c/|dcB/A/BEB|\
eBecAe|fcfece|g/g/afecB/A/|G/A/BEA2|]
